X: 364
T: The Jolly Beggarman
M:3/4
L:1/4
B:O'Neill's 364
N:"Gaily."
N:"collected by F. O'Neill."
N:All ornaments (~) are trills.
Z:Transcribed by Chris Falt, cfalt@trytel.com
K:D
(f/2e/2)|d>cA|(~AGA)|c>AG|A2(f/2e/2)|
d>cA|ABc|d>ed|(dfe)|
d>cA|(~AGA)|c>AG|A~fe|
c>cA|ABc|d3-|d2||
f/2g/2|(a2b)|(g2a)|fed|cde|
(a2b)|(g2a)|fed|efg|
(a2b)|(g2a)|fed|cde|
fed|cAc|d3-|d2||


